roman-numeral-3.svg

<svg fill="currentColor" viewBox="0 0 24 24"><path d="M9 7v2H8v6h1v2H5v-2h1V9H5V7zm5 0v2h-1v6h1v2h-4v-2h1V9h-1V7zm5 0v2h-1v6h1v2h-4v-2h1V9h-1V7z"/></svg>

<svg  viewBox="0 0 24 24" fill="currentColor"><path  d="M9 7V9H8V15H9V17H5V15H6V9H5V7H9M14 7V9H13V15H14V17H10V15H11V9H10V7H14M19 7V9H18V15H19V17H15V15H16V9H15V7H19Z"/></svg>
